do
  hush
  cps(1.1)
  d1 $
    -- sometimesBy 0.4 (density 3.0) $
    -- jux (iter 8) $
    stack [
      sound "bd cp*2",
      sound "glitch(5,8)*2 ~ ~ bd"
    ]
    #n (irand 10)
    #resonance "0.4"
    #gain "0.5 2.0 2.0"
  d2 $
    -- every 4 (rev) $
    every 4 (0.25 ~>) $
    stack [
      sound "arpy(3,8) supersaw(3, 13, 5)"
      -- sound "gabba(8,13)"
    ]
    #n "[2 4 5, 1 2 8]/2"
    #pan "0.1 0 1.0"
    #room "1.5"
    #shape "[0.8 0.9, 0.9 0.9]/2"
    #gain "0.9"
    #speed (density 2.0 $ tri)
    #resonance "0.7"

hush

  d1 $ sound (samples "hc*8" (iter 4 $ run 4))

  d2 $ sound "voodoo(5, 13)" #n (irand 8)

  d1 $ whenmod 8 6 (rev) $ sometimesBy 0.4 (density 1.5) $ sound "bd(5,8) cp*2" # gain "0."

  d2 $
    jux (iter 6) $
    sound "glitch(5, 13)"
    #n (irand 8)
    #speed "0."
    #shape "[0.8 0.9, 0.05, 0.2]/2"
    #resonance "[0.8, 0.6 0.2, 0.3 0.9]/3"
    #gain "0.1"

    hush

do
  cps(1.12)
  d1 $
    -- whenmod 8 6 (density 2.0) $
    -- jux (iter 4) $
    stack [
      sound "subroc3d:2" #gain (saw*2),
      sound "808:2(3,8)",
      sound "bd(2,5)",
      sound "~ cp*2"
    ]
    #room "0.8"
    -- #gain "1.0"
    #n "[1 3 5 6, 4 2 7 6]/2"
    #speed "1.0"
    #shape "0.9"
  d2 $
    -- whenmod 8 6 (density 2.0) $
    jux (iter 4) $
    stack [
      sound "glitch(5,8)"
    ]
    #room "0.8"
    #n (irand 10)

  t1 (xfadeIn 8) $
    whenmod 8 6 (density 2.0) $
    -- jux (iter 4) $
    stack [
      sound "subroc3d:2" #gain (saw*2)
    ]
    #room "0.8"
    -- #gain "1.0"
    #n "[1 3 5 6, 4 2 7 6]/2"
    #speed "1.0"
    #shape "0.9"
  hush

d1 $ sound "wind*2"
  #speed 0.5
  #sustain "2.0"
  #n (irand 10)

  hush

-- d1 $ sound "bd" # room "0.001"
