

import Sound.Tidal.OscStream


let p5Shape = dirt {cpsStamp = False, latency = 0.4}
    p5Slang = superDirtSlang {timestamp = NoStamp,
                              preamble = []
                             }
    p5Stream = do
      s <- makeConnection "127.0.0.1" 1818 p5Slang
      stream (Backend s $ (\_ _ _ -> return ())) p5Shape
    (scene, _) = pS "scene" Nothing
    combinedStream = do p5 <- p5Stream
                        ds <- superDirtState 57120
                        let d = setter ds
                        return $ \p -> do p5 p
                                          d p

x1 <- combinedStream

let hush = mapM_ ($ silence) [d1,d2,d3,d4,d5,d6,d7,d8,d9,x1]


let solo = (>>) hush

x1 $ s "bd*4"

hush

do
  hush
  -- フォルダ名:index
  x1 $
    sometimesBy 0.5 (density 2.0) $
    -- jux (iter 8) $
    sound "[808:3*2 hh:1*4 ~ ~ ~ ~ ~ ~ , 808:6 808:1]/2 ~ bd"
    # pan sine
    # sustain 4.0
    # room "0.4"
  -- ~　休符
  -- d2 $
  --   sound "[arpy*2 ~ ~arpy, arpy*4 ~ arpy arpy]"
  --   # n (irand 10)
  --   # gain (run 10)
  --   # sustain "5.0"
  -- d3 $
  --   jux (iter 4) $
  --   sometimesBy 0.5 (density 0.7) $
  --   sound "[bd(5, 8, [1 3 2 7]/4), cp(5, 8, [2 5]/2)]"
  --   # gain (run 4)
  --   # n (run 6)
  --   # sustain "1.2"
  cps(1)
-- 全部消


hush

d3 silence

d1 $ sound "[mac:1*4, mac(5,6), mac:2]" # up (irand 10)

hush

d1 $sound "supersaw*4" #n (run 12) |+| 2

cps(1)

-- 一つだけ残す
solo $ d1 $ sound "808:3 hh:1 808:6 808:1 ~ bd ~ hh"

d2 silence

d1 $ every 4 (sometimesBy 0.4 (density 0.4) $
sound "[bd hh]*0.5 [cp cp*2]*0.5" # gain 2.0

d2 $ sometimesBy 0.3 (density 4.0) $
sound "808 808 ~ ~ gabba ~ ~ arpy " # pan sine

d1 $ sound "[bd sn sn*3]/2 [bd sn*3 bd*4]/3"

d1 $ sound "[bd [sn sn]*2]/2 [bd [sn bd]/2]*2"

d2 $ sound "cp bd ~ cp"

d1 $ sound " ~ ~ ~ ~ ~ bd bd[~ ~ ~, ~ ~ bd] ~ ~ cp cp bd bd bd"

d1 $ every 4 (rev) $
every 4 (density 2.0) $
sound "[[bd bd bd bd] ~ ~ ~ [808*2]]/2"

d1 $ sound "bd(5,8)"

d1 $ sound "testsynth*8" # pan sine  #note (irand 12)

hush

-- d1 $ every 4 (sound ("bd(5,8)"))

-- glitch

--　すこ
d1 $
  jux (iter 4) $
  sound "[bd(3, 8, [1 3 2 7]/4), cp(5, 8, [2 5]/2)]"
  # gain (run 4)
  # n (run 4)
  -- # pan rand

-- ポリリズム
 d2 $
  sound "[bd*3, hc*0.9, 808*4]"
d1 $  sound "[bd cp hs, bd arpy]"

-- ポリメーター
d1 $ sound "{bd cp hs ~, bd arpy bd*2}"

-- juxは左右で違う音を出す
do
  d1 $
  every 4 (rev) $
  jux (iter 8) $
  sometimes (chop 32) $
  stack [
    sound "[bd(5,8), cp(5,3,8), ifdrums(3,8)]"
    -- sound "supersaw(5,16, {1 2})"
  ]
  #n (irand 8)
  #delay "0.4"
  #delaytime "0.125"
  #cutoff "400 15000 4000 2000"
    -- #resonance (run)"[0.5 0.8]"
  -- hush

do
  -- d1 $
  --   sometimesBy 0.5 (jux (iter 8)) $
  --   sometimesBy 0.3 (slow 2) $
  --   sound ("alphabet(3, 8)")
  --   # n (irand 27)
  --   # up (rand*20-10)

  d2 $
    jux (iter 4) $
    sound "[bd(3, 8, [1 3 2 7]/4), cp(5, 8, [2 5]/2)]"
    # gain (run 4 * 0.5)
    # n (run 4)
    # resonance "0.3"
    # room "0.3"



hush

do
  d1 $
    jux (iter 8) $
    sometimesBy 0.3 (density (run 3)) $
    stack [
      s "glitch(5, 13)",
      s "glitch(5, 13)",
      s "glitch(5, 13)",
      s "glitch(5, 13)"
      -- s "~ ~ ~ bd*4"
    ]
    #n (irand 20)
    #pan sine
  d2 $
    jux (iter 3) $
    density (run 5.0) $
    s "arpy"
    #n "[[1.0, 2.0, 5.0], [1.0, 4.0, 5.0]]/2"
    #shape 0.6
    #sustain 2.0
    #room 1.0
  d3 $
    jux (iter 4) $
    sound "[bd(3, 8, [1 3 2 7]/4), cp(5, 8, [2 5]/2)]"
    # gain (run 4)
    # n (run 4)
  cps(0.1)
  hush


d2 $
  -- jux (iter 4) $
  sound "[bd(3, 8, [1 3 2 7]/4), cp(5, 8, [2 5]/2)]"
  # gain (run 2)
  # n (run 4)
  # resonance "0.3"
  # room "0.3"

d3 $
  stack [
    sound "cp(3,5)",
    sound "[gabba*2 ~ gabba, ~ ~ ~ gabba]/2"
  ]
  # gain "0.7 0.5 0.6"



d2 $
  jux (iter 4) $
  sound "[bd(3, 8, [1 3 2 7]/4), cp(5, 8, [2 5]/2)]"
  # gain (run 4 * 0.5)
  # n (run 4)
  # resonance "0.6"
  # room "0.3"

-- d2 $ sound "synth*4"

do
  d1 $ sound "bd*256"
  d2 $ sound "bd*128"
  d3 $ sound "bd*64"
  d4 $ sound "bd*32"

d1 $ sound "bd*2 ~ bd" |=| speed "1.0 2.0"

d1 $ up "[[0, 2, 3], [0,1,3]]/2" |=| sound "arpy arpy bd"

hush

d2 $ sound "808:2*0.5 gabba*2" |=| speed "0.2 1.0"

d3 $ sound "[cp*0.5 cp ~ bd] ~ ~ "


d1 $ sometimesBy 0.75
